X:1
T:Title
%%score 1 2 3
L:1/8
M:3/2
K:C
V:1 treble nm="Part_1"
V:2 treble-8 nm="Part_2"
V:3 treble-8 nm="Part_3"
V:1
 F4 F4 F4 | E4 A8 | G4 A2 c4 B2 | G2 c4 Bc B2 AB | c4 B2 A4 G2 | G2 E2 D2 G2 F2 EF | G4 z4 z4 | %7
 _B4 B4 B4 | A4 d8 | c8 A4 | G2 _B4 B2 A2 GA | _B4 z4 z4 | c4 c2 A4 G2 | _B2 A2 F2 E2 F2 D2 | %14
 (3C2 D2 E2 z4/3 (3:2:5G2 F2 E2 F2 D2 | F12 | z12 | z12 | z12 | z12 | ^F4 F4 F4 | E2 A4 G2 _B4 | %22
 A6 c4 A2 | G12 | A8 ^F4 | G2 E2 D2 G2 F2 EF | G12 ||[M:6/4] E4 A2 A2 G2 AB | c4 A4 G4 | %29
 F2 G A2 B G3 c BA | c4 BAGEDGFE | G2 _B4 A2 G4 | A6 z2 z2 AB | (4:3:6c4 d2 c4 B2 c2 A2 | %34
 (4:3:4G4 E2 G8 A2 | (4:3:7_B2 G2 B2 A2 G2 F4 E2 | (4:3:5G4 z4 E2 C4 D2 | %37
 (4:3:9E4 A2 G2 F2 EF E2 DE |[M:3/2] F6 z6 | E2 E2 E2 D4 A2 | c2 B4 A2 G4 | A2 z2 AB c2 B d2 c | %42
 c2 B A2 GBAGF E2- | ED D2 A3 G G2 F2 | G12 ||[M:2/2] c8- | c8 | _B4 A4 | G2 F4 E2 | D6 A2- | %50
 A2 G4 C2- | C2 F4 E2 | G8 | A2 B2 c2 d2- | d2 c2 B2 AB | (3:2:4c4 A4 c2 B2 | %56
 (3:2:6G2 B2 A2 A2 G2 F2 | c4 z4 | B8 | E4 D4 | D2 z2 E4 | C2 G4 A2 | c2 B2 A2 G2- | G2 G2 F2 EF | %64
 G4 z4 | c6 B2 | d4 c2 A2- | A2 G2 B4 | A2 F2 G2 FG | F2 EF E2 DE | F8 |] %71
V:2
[K:F] F4 F4 F4 | A8 A4 | c8 G4 | c4 d8 | c12- | c12 | G4 G4 G4 | G12 | d12 | A8 d4 | _e4 d2 B2 c4 | %11
 B8 G4 | F6 c6 | G4 z4 B4 | A8 G4 | F12- | F12 | c4 d4 e4 | f2 f4 e2 f2 d2 | c12 | d12- | d12 | %22
 c12 | G4 B8 | A8 d4 | c4 B2 G2 A4 | G12 ||[M:6/4] A6 d6 | c12 | f4 e4 d4 | c4 G2 B2 A4 | %31
 G2 d4 c2 B4 | A12 | F6 A6 | c12 | B6 A6 | G6 A6 | c4 B2 A2 G4 |[M:3/2] F12 | c2 c2 c2 d4 A2 | %40
 F2 G4 A2 B4 | A6 F6- | F4 G2 A4 c2 | d4 c2 G2 A4 | G12 ||[M:2/2] F8- | F8 | G4 A4 | B2 d4 c2 | %49
 d8 | c8 | B4 A4 | G4 z4 | d4 f4 | e4 d4 | c4 d4 | e2 d2 c2 B2 | A4 z4 | c6 e2- | e2 g4 f2 | %60
 g4 z4 | c4 G4 | d6 c2- | c2 B2 A4 | G4 z4 | F4 G4 | A2 B4 c2 | d8 | c4 B4 | A4 G4 | F8 |] %71
V:3
[K:F] c4 c4 d4 | c2 A4 F4 D2 | C6 G6 | C4 G8 | C12 | A12 | d12- | d12 | D12 | c8 =B4 | c6 d4 e2 | %11
 f4 d4 e4 | f8 z4 | d4 c4 G4 | e2 d2 c2 B4 A2 | c12 | f2 f4 e2 f2 d2 | c4 B4 G4 | F12- | F12 | %20
 D12- | D12 | D12 | d12 | e8 D4 | F2 G4 d4 ^c2 | d12 ||[M:6/4] A6 D6 | F4 A4 E4 | F4 G4 D4 | %30
 A4 d4 c4 | d4 D2 F2 G4 | D12 | f8 e2 d2 | c2 A8 F2 | G8 c4 | d4 c8 | A4 G2 B6 |[M:3/2] c12 | %39
 A2 A2 A2 D6 | A2 G4 F4 E2 | D6 c4 f2- | f2 d2 c2 A3 F A2 | D4 z2 e d2 c2 B | d12 ||[M:2/2] f8- | %46
 f8 | d4 c4 | B2 G4 A2 | D8 | A6 e2- | e2 d4 c2 | d4 z4 | (3:2:2G8 F4 | (3c4 G4 =B4 | %55
 (3:2:4A2 G4 D4 D2 | (3:2:5C2 D2 E2 F2 G4 | D8 | E8 | _B4 A4 | G8 | A4 d4- | d2 f4 e2- | %63
 e2 d2 c2 =Bc | d4 e4 | f4 d4 | c2 G4 A2 | D8 | (3:2:2F8 G4 | (3:2:5A2 c4 c2 d2 B2 | c8 |] %71

